X:1
T:[ID 2-39a]
T:[ID 2-39a]
T:Bezeichnung standardisiert: Polonaise Polon\"aise
T:Urheber unbekannt Datum in der hier transkribierten schriftlichen Quelle: 1767
C:Urheber unbekannt
C:Datum in der hier transkribierten schriftlichen Quelle: 1767
L:1/8
M:3/4
K:C
V:1 treble 
V:1
 cg/f/ gefg | af/a/ ge/g/ f2 | df/e/ dc BA/G/ | cg/f/ gefg | af/a/ ge/g/ fd/f/ | e/d/c/B/ c2 c2 :: %6
"^O)" d3 e f/e/f/d/ | e3 f g/f/g/e/ |"^O)" d3 e f/e/f/d/ | e3 f g/f/g/e/ | af/a/ ge/g/ fd/f/ | %11
 e/d/c/B/ c2 C2 :| %12

